24x24/actions/lpi-bug.svg

<svg viewBox="0 0 24 24" xmlns="http://www.w3.org/2000/svg"><path d="m2 4v16h13v-1h-12v-.586l.463-.463 6.267-6.267 1.454 1.45.814.815h.002l.816-.814 1.454-1.451 1.316 1.316h1.414l-2.023-2.023 5.752-5.754.221-.223h.05v8h1v-9zm1 1h.049l.222.223 5.752 5.754-6.023 6.023zm1.463 0h15.074l-7.537 7.537z" fill="#8b9cbe"/><path d="m19 14c-1.662 0-3 1.338-3 3s1.338 3 3 3 3-1.338 3-3-1.338-3-3-3zm0 1c.372 0 .714.106 1.012.281l-2.73 2.73a1.983 1.983 0 0 1 -.282-1.011c0-1.108.892-2 2-2zm1.719.988a1.996 1.996 0 0 1 -1.719 3.012c-.372 0-.714-.106-1.012-.281l2.73-2.73z" fill="#da4453"/></svg>

<svg xmlns="http://www.w3.org/2000/svg" viewBox="0 0 24 24"><path style="fill:currentColor;fill-opacity:1;stroke:none;color:#8b9cbe" d="M2 4v16h13v-1H3v-.586l.463-.463 6.267-6.267 1.454 1.45.814.815H12l.816-.814 1.454-1.451L15.586 13H17l-2.023-2.023 5.752-5.754L20.95 5H21v8h1V4H2zm1 1h.049l.222.223 5.752 5.754L3 17V5zm1.463 0h15.074L12 12.537 4.463 5z"/><path style="fill:currentColor;fill-opacity:1;stroke:none;color:#da4453" d="M19 14c-1.662 0-3 1.338-3 3s1.338 3 3 3 3-1.338 3-3-1.338-3-3-3zm0 1c.372 0 .714.106 1.012.281l-2.73 2.73A1.983 1.983 0 0 1 17 17c0-1.108.892-2 2-2zm1.719.988A1.996 1.996 0 0 1 19 19c-.372 0-.714-.106-1.012-.281l2.73-2.73z"/></svg>
